X: 359
T: A Smile In The Dark
R: jig
M: 6/8
K: Gmajor
|:DGB cAG|EFG ABc|ded cAA|GAG DED|
~B3 cAG|EFG ABc|ded cAG|AGF G3:|
|:GAB geg|fdB cde|f3 a2g|gdd ~B3|
gfe dcB|AGG E2F|GAA AGF|G3 G3:|

